favicon.svg

<svg width="48" height="48" viewBox="0 0 48 48" fill="none" xmlns="http://www.w3.org/2000/svg">
<rect width="48" height="48" rx="5" fill="#14181F"/>
<path d="M15.0281 40.1188L15.0263 40.1175C13.0893 38.5818 11.7197 36.5099 10.9098 33.9252L10.7496 33.4138L11.2708 33.2893L17.9708 31.6893L18.4936 31.5645L18.5804 32.0949C18.7081 32.8752 19.118 33.5724 19.8555 34.1903C20.5963 34.7942 21.3533 35.0757 22.137 35.0757C22.6771 35.0757 23.277 34.9264 23.9425 34.6014L23.9466 34.5994L23.9466 34.5994C24.5658 34.3039 25.0043 33.8398 25.2748 33.1848L25.275 33.1845C25.4469 32.769 25.5561 32.2377 25.5875 31.5769C25.6204 30.8868 25.637 30.0867 25.637 29.1757V5.17566V4.67566H26.137H33.037H33.537V5.17566V29.1757C33.537 30.3257 33.5287 31.3275 33.512 32.1806C33.5119 32.1822 33.5119 32.1839 33.5119 32.1855L33.012 32.1757C33.012 33.0257 32.9286 33.8257 32.762 34.5757L15.0281 40.1188ZM15.0281 40.1188C17 41.6682 19.4823 42.4257 22.437 42.4257C24.4895 42.4257 26.3741 42.0112 28.0819 41.1747C29.8149 40.3259 31.2096 38.9678 32.2697 37.1262C32.7562 36.2918 33.0876 35.476 33.2509 34.6801L15.0281 40.1188Z" fill="#D16C86" stroke="#D16C86"/>
</svg>

<?xml version="1.0" encoding="utf-8"?>
<!-- Generator: Adobe Illustrator 27.0.1, SVG Export Plug-In . SVG Version: 6.00 Build 0)  -->
<svg version="1.1" id="Capa_1" xmlns="http://www.w3.org/2000/svg" xmlns:xlink="http://www.w3.org/1999/xlink" x="0px" y="0px"
	 viewBox="0 0 48 48" style="enable-background:new 0 0 48 48;" xml:space="preserve">
<style type="text/css">
	.st0{fill:#FFFFFF;}
	.st1{fill:#232552;stroke:#FFFFFF;}
</style>
<path class="st0" d="M5,0h38c2.8,0,5,2.2,5,5v38c0,2.8-2.2,5-5,5H5c-2.8,0-5-2.2-5-5V5C0,2.2,2.2,0,5,0z"/>
<path class="st1" d="M15,40.1L15,40.1c-1.9-1.5-3.3-3.6-4.1-6.2l-0.2-0.5l0.5-0.1l6.7-1.6l0.5-0.1l0.1,0.5c0.1,0.8,0.5,1.5,1.3,2.1
	c0.7,0.6,1.5,0.9,2.3,0.9c0.5,0,1.1-0.1,1.8-0.5l0,0l0,0c0.6-0.3,1.1-0.8,1.3-1.4l0,0c0.2-0.4,0.3-0.9,0.3-1.6c0-0.7,0-1.5,0-2.4
	v-24V4.7h0.5H33h0.5v0.5v24c0,1.2,0,2.2,0,3c0,0,0,0,0,0l-0.5,0c0,0.8-0.1,1.6-0.2,2.4L15,40.1z M15,40.1c2,1.5,4.5,2.3,7.4,2.3
	c2.1,0,3.9-0.4,5.6-1.3c1.7-0.8,3.1-2.2,4.2-4c0.5-0.8,0.8-1.7,1-2.4L15,40.1z"/>
</svg>
